brandFactory_export/1.Light/Historial medico_1Light.svg

<?xml version="1.0" encoding="UTF-8"?>
<svg width="24px" height="24px" viewBox="0 0 24 24" version="1.1" xmlns="http://www.w3.org/2000/svg" xmlns:xlink="http://www.w3.org/1999/xlink">
    <title>1.Light/Historial medico_1Light</title>
    <g id="Symbols" stroke="none" stroke-width="1" fill="none" fill-rule="evenodd">
        <g id="1.Light/Historial-medico_1Light" fill="#5CB615" fill-rule="nonzero">
            <path d="M19.7731092,22.2655462 L19.7731092,3.1092437 C19.7731092,3.01176471 19.4605042,2.71260504 19.0168067,2.71260504 L15.4840336,2.71260504 C15.5008403,2.8302521 15.5142857,2.94453782 15.5210084,3.06554622 L15.5310924,3.29411765 L15.5277311,3.40504202 C15.4739496,4.97142857 14.0352941,5.29411765 11.8941176,5.29411765 C9.75294118,5.29411765 8.31428571,4.96806723 8.25714286,3.38487395 L8.25714286,3.15294118 L8.26386555,3.04201681 C8.26722689,2.92436975 8.2907563,2.82016807 8.30420168,2.71260504 L4.76470588,2.71260504 C4.3210084,2.71260504 4.00840336,3.01512605 4.00840336,3.1092437 L4.00840336,22.2655462 C4.00840336,22.4 4.33781513,22.6621849 4.76470588,22.6621849 L19.0168067,22.6621849 C19.4436975,22.6621849 19.7731092,22.3966387 19.7731092,22.2655462 Z M11.887395,0.961344538 C10.1394958,0.961344538 9.29915966,1.64369748 9.22857143,3.1092437 L9.22184874,3.29411765 C9.23865546,3.76470588 9.25882353,4.33277311 11.8840336,4.33277311 C14.5092437,4.33277311 14.5327731,3.76470588 14.5462185,3.3512605 L14.5462185,3.19327731 C14.5394958,2.91092437 14.4957983,2.63193277 14.4151261,2.36302521 C14.1193277,1.41848739 13.292437,0.961344538 11.887395,0.961344538 Z M19.0134454,1.7512605 C19.9210084,1.7512605 20.7445378,2.4 20.7445378,3.1092437 L20.7445378,22.2655462 C20.7445378,23.005042 19.9512605,23.6235294 19.0134454,23.6235294 L4.76134454,23.6235294 C3.82352941,23.6235294 3.0302521,23.0016807 3.0302521,22.2655462 L3.0302521,3.1092437 C3.0302521,2.39663866 3.85714286,1.74789916 4.76134454,1.74789916 L8.54621849,1.74789916 C9.05042017,0.61512605 10.1966387,0 11.8907563,0 C13.9512605,0 14.8453782,0.890756303 15.2285714,1.7512605 L19.0134454,1.7512605 Z M10.805042,3.51932773 C10.5394958,3.51932773 10.3210084,3.30756303 10.3176471,3.03865546 C10.3176471,2.77310924 10.5361345,2.55798319 10.805042,2.55798319 L12.9663866,2.55798319 C13.2352941,2.55798319 13.4537815,2.77310924 13.4537815,3.03865546 C13.4537815,3.30420168 13.2352941,3.51932773 12.9663866,3.51932773 L10.805042,3.51932773 Z M18.7613445,13.9226891 C19.0302521,13.9226891 19.2487395,14.1378151 19.2487395,14.4033613 C19.2487395,14.6689076 19.0302521,14.8840336 18.7613445,14.8840336 L15.3260504,14.8840336 C15.1210084,14.8840336 14.9361345,14.7563025 14.8655462,14.5647059 L14.2739496,12.9008403 L13.7865546,14.5411765 C13.7226891,14.7462185 13.5344538,14.887395 13.3193277,14.8840336 L12.5193277,14.8840336 L11.7361345,17.4184874 C11.6722689,17.6201681 11.4840336,17.7579832 11.2689076,17.7579832 L11.2453782,17.7579832 C11.0235294,17.7478992 10.8352941,17.589916 10.7915966,17.3714286 L9.56470588,11.3210084 L8.57310924,14.4806723 C8.5092437,14.6823529 8.3210084,14.8201681 8.10588235,14.8201681 L5.01344538,14.8201681 C4.74789916,14.8235294 4.52941176,14.6084034 4.52605042,14.3394958 C4.52605042,14.0739496 4.74117647,13.8588235 5.01344538,13.8588235 L7.74621849,13.8588235 L9.19831933,9.2302521 C9.26218487,9.01512605 9.46722689,8.87394958 9.68907563,8.89411765 C9.91092437,8.90420168 10.0991597,9.06218487 10.1428571,9.28067227 L11.3663866,15.3142857 L11.6890756,14.2655462 C11.7529412,14.0638655 11.9445378,13.9260504 12.1563025,13.9260504 L12.9529412,13.9260504 L13.7630252,11.2 C13.8235294,10.9983193 14.0084034,10.8605042 14.2168067,10.8571429 C14.4285714,10.8504202 14.6201681,10.9781513 14.6907563,11.1764706 L15.6689076,13.9260504 L18.7613445,13.9226891 L18.7613445,13.9226891 Z" id="Historial-medico_1Light"></path>
        </g>
    </g>
</svg>

<svg width="24" height="24" viewBox="0 0 24 24" xmlns="http://www.w3.org/2000/svg"><path d="M19.773 22.266V3.109c0-.097-.312-.396-.756-.396h-3.533c.017.117.03.232.037.353l.01.228-.003.111c-.054 1.566-1.493 1.89-3.634 1.89s-3.58-.327-3.637-1.91v-.232l.007-.111c.003-.118.027-.222.04-.33h-3.54c-.443 0-.756.303-.756.397v19.157c0 .134.33.396.757.396h14.252c.427 0 .756-.265.756-.396zM11.887.96C10.14.961 9.3 1.644 9.23 3.11l-.007.185c.017.47.037 1.039 2.662 1.039s2.649-.568 2.662-.982v-.158a3.148 3.148 0 00-.13-.83c-.297-.945-1.124-1.402-2.529-1.402zm7.126.79c.908 0 1.732.649 1.732 1.358v19.157c0 .739-.794 1.358-1.732 1.358H4.761c-.937 0-1.73-.622-1.73-1.358V3.109c0-.712.826-1.361 1.73-1.361h3.785C9.05.615 10.196 0 11.891 0c2.06 0 2.954.89 3.338 1.751h3.784zM10.805 3.52a.486.486 0 01-.487-.48c0-.266.218-.481.487-.481h2.161c.27 0 .488.215.488.48 0 .266-.219.481-.488.481h-2.161zm7.956 10.404c.27 0 .488.215.488.48 0 .266-.219.481-.488.481h-3.435a.491.491 0 01-.46-.32l-.592-1.663-.487 1.64a.483.483 0 01-.468.343h-.8l-.783 2.534a.488.488 0 01-.467.34h-.024a.483.483 0 01-.453-.387l-1.227-6.05-.992 3.16a.488.488 0 01-.467.34H5.013a.484.484 0 01-.487-.482c0-.265.215-.48.487-.48h2.733L9.198 9.23a.47.47 0 01.491-.336c.222.01.41.168.454.387l1.223 6.033.323-1.048a.491.491 0 01.467-.34h.797l.81-2.726a.482.482 0 01.454-.343.484.484 0 01.474.32l.978 2.75 3.092-.004z" fill="#5CB615" fill-rule="nonzero"/></svg>
